icons/editor-pen-tool-1-filled.svg

<svg width="25" height="24" viewBox="0 0 25 24" fill="none" xmlns="http://www.w3.org/2000/svg">
<g id="pen-tool-01">
<path id="Icon" d="M19.8315 13.8973C20.0161 13.3768 19.7439 12.8051 19.2234 12.6205C18.7029 12.4358 18.1313 12.708 17.9466 13.2285L19.8315 13.8973ZM16.8556 19.2935L17.798 19.6279L16.8556 19.2935ZM15.4841 20.4809L15.6803 21.4615L15.4841 20.4809ZM3.51289 22.8752L2.52876 22.6977C2.47002 23.0235 2.57627 23.3572 2.81253 23.589C3.04879 23.8208 3.38444 23.9207 3.70901 23.8558L3.51289 22.8752ZM5.69751 10.7605L6.68164 10.9379L5.69751 10.7605ZM6.95785 9.33261L7.25612 10.2871H7.25612L6.95785 9.33261ZM13.1235 8.45354C13.6506 8.28881 13.9444 7.72793 13.7797 7.20078C13.6149 6.67364 13.0541 6.37985 12.5269 6.54458L13.1235 8.45354ZM3.02235 21.9515C2.63182 22.3421 2.63182 22.9752 3.02235 23.3657C3.41287 23.7563 4.04604 23.7563 4.43656 23.3657L3.02235 21.9515ZM9.63413 18.1682C10.0247 17.7776 10.0247 17.1445 9.63413 16.754C9.24361 16.3634 8.61044 16.3634 8.21992 16.754L9.63413 18.1682ZM22.3541 9.23158L23.0612 8.52447L22.3541 9.23158ZM22.3541 10.9641L23.0612 11.6712L22.3541 10.9641ZM15.424 4.03401L14.7169 3.32691L15.424 4.03401ZM17.1565 4.03401L16.4494 4.74112L17.1565 4.03401ZM13.2583 7.93219L12.5512 8.6393L13.2583 7.93219ZM13.2583 6.19967L13.9654 6.90677L13.2583 6.19967ZM18.4559 13.1298L19.163 12.4226L18.4559 13.1298ZM20.1884 13.1298L19.4813 12.4226L20.1884 13.1298ZM3.0934 6.59989C3.0934 7.15217 3.54112 7.59989 4.0934 7.59989C4.64569 7.59989 5.0934 7.15217 5.0934 6.59989L3.0934 6.59989ZM5.0934 1.31152C5.0934 0.759239 4.64568 0.311523 4.0934 0.311523C3.54112 0.311523 3.0934 0.759239 3.0934 1.31152L5.0934 1.31152ZM1.44922 2.95571C0.896934 2.95571 0.449219 3.40342 0.449219 3.95571C0.449219 4.50799 0.896934 4.95571 1.44922 4.95571L1.44922 2.95571ZM6.73758 4.9557C7.28987 4.9557 7.73758 4.50799 7.73758 3.9557C7.73758 3.40342 7.28987 2.9557 6.73758 2.9557V4.9557ZM17.9466 13.2285L15.9131 18.9591L17.798 19.6279L19.8315 13.8973L17.9466 13.2285ZM15.288 19.5004L3.31677 21.8946L3.70901 23.8558L15.6803 21.4615L15.288 19.5004ZM4.49702 23.0527L6.68164 10.9379L4.71339 10.583L2.52876 22.6977L4.49702 23.0527ZM7.25612 10.2871L13.1235 8.45354L12.5269 6.54458L6.65957 8.37813L7.25612 10.2871ZM6.68164 10.9379C6.737 10.6309 6.95837 10.3801 7.25612 10.2871L6.65957 8.37813C5.65088 8.69334 4.90093 9.54298 4.71339 10.583L6.68164 10.9379ZM15.9131 18.9591C15.8145 19.237 15.5771 19.4425 15.288 19.5004L15.6803 21.4615C16.6597 21.2656 17.464 20.5693 17.798 19.6279L15.9131 18.9591ZM4.43656 23.3657L9.63413 18.1682L8.21992 16.754L3.02235 21.9515L4.43656 23.3657ZM19.163 12.4226L13.9654 7.22508L12.5512 8.6393L17.7488 13.8369L19.163 12.4226ZM13.9654 6.90677L16.1311 4.74112L14.7169 3.32691L12.5512 5.49256L13.9654 6.90677ZM16.4494 4.74112L21.647 9.93869L23.0612 8.52447L17.8636 3.32691L16.4494 4.74112ZM21.647 10.257L19.4813 12.4226L20.8955 13.8369L23.0612 11.6712L21.647 10.257ZM21.647 9.93869C21.7349 10.0266 21.7349 10.1691 21.647 10.257L23.0612 11.6712C23.9301 10.8023 23.9301 9.39342 23.0612 8.52447L21.647 9.93869ZM16.1311 4.74112C16.219 4.65322 16.3615 4.65322 16.4494 4.74112L17.8636 3.32691C16.9947 2.45796 15.5858 2.45796 14.7169 3.32691L16.1311 4.74112ZM13.9654 7.22508C13.8775 7.13718 13.8775 6.99467 13.9654 6.90677L12.5512 5.49256C11.6823 6.36151 11.6823 7.77035 12.5512 8.6393L13.9654 7.22508ZM17.7488 13.8369C18.6177 14.7058 20.0266 14.7058 20.8955 13.8369L19.4813 12.4226C19.3934 12.5105 19.2509 12.5105 19.163 12.4226L17.7488 13.8369ZM10.0673 14.27C10.6336 13.7037 11.5518 13.7037 12.1181 14.27L13.5323 12.8558C12.1849 11.5084 10.0004 11.5084 8.65305 12.8558L10.0673 14.27ZM12.1181 14.27C12.6844 14.8363 12.6844 15.7545 12.1181 16.3208L13.5323 17.735C14.8797 16.3877 14.8797 14.2032 13.5323 12.8558L12.1181 14.27ZM12.1181 16.3208C11.5518 16.8871 10.6336 16.8871 10.0673 16.3208L8.65305 17.735C10.0004 19.0824 12.1849 19.0824 13.5323 17.735L12.1181 16.3208ZM10.0673 16.3208C9.50094 15.7545 9.50094 14.8363 10.0673 14.27L8.65305 12.8558C7.30568 14.2032 7.30568 16.3877 8.65305 17.735L10.0673 16.3208ZM5.0934 6.59989L5.0934 3.95571L3.0934 3.95571L3.0934 6.59989L5.0934 6.59989ZM5.0934 3.95571L5.0934 1.31152L3.0934 1.31152L3.0934 3.95571L5.0934 3.95571ZM1.44922 4.95571L4.0934 4.95571L4.0934 2.95571L1.44922 2.95571L1.44922 4.95571ZM4.0934 4.95571L6.73758 4.9557V2.9557L4.0934 2.95571L4.0934 4.95571Z" fill="black"/>
</g>
</svg>

<svg xmlns="http://www.w3.org/2000/svg" width="25" height="24" fill="none" viewBox="0 0 25 24"><path fill="currentColor" d="M19.832 13.897a1 1 0 0 0-1.885-.668zm-2.976 5.397.942.334zm-1.372 1.187.196.98zM3.513 22.875l-.984-.177a1 1 0 0 0 1.18 1.158zm2.185-12.114.984.177zm1.26-1.428.298.954zm6.166-.88a1 1 0 0 0-.597-1.908zM3.021 21.953a1 1 0 1 0 1.415 1.414zm6.612-3.784a1 1 0 1 0-1.414-1.414zm12.72-8.936.707-.708zm0 1.732.707.707zm-6.93-6.93-.707-.707zm1.733 0-.708.707zm-3.899 3.898-.707.707zm0-1.732.707.707zm5.198 6.93.707-.707zm1.732 0-.707-.707zM3.093 6.6a1 1 0 0 0 2 0zm2-5.288a1 1 0 0 0-2 0zM1.45 2.956a1 1 0 1 0 0 2zm5.289 2a1 1 0 1 0 0-2zm11.209 8.273-2.034 5.73 1.885.669 2.034-5.73zM15.288 19.5 3.317 21.895l.392 1.96 11.971-2.393zM4.497 23.053l2.185-12.115-1.969-.355L2.53 22.698zm2.76-12.766 5.867-1.833-.597-1.91L6.66 8.379zm-.575.65a.84.84 0 0 1 .574-.65L6.66 8.378a2.84 2.84 0 0 0-1.947 2.205zm9.231 8.022a.84.84 0 0 1-.625.541l.392 1.962a2.84 2.84 0 0 0 2.118-1.834zM4.437 23.366l5.197-5.198-1.414-1.414-5.198 5.197zm14.726-10.943-5.198-5.198-1.414 1.414 5.198 5.198zm-5.198-5.516 2.166-2.166-1.414-1.414-2.166 2.166zM16.45 4.74l5.198 5.198 1.414-1.415-5.197-5.197zm5.198 5.516-2.166 2.166 1.414 1.414 2.166-2.166zm0-.318a.225.225 0 0 1 0 .318l1.414 1.414a2.225 2.225 0 0 0 0-3.147zM16.131 4.74a.225.225 0 0 1 .318 0l1.415-1.414a2.225 2.225 0 0 0-3.147 0zm-2.166 2.484a.225.225 0 0 1 0-.318l-1.414-1.414a2.225 2.225 0 0 0 0 3.146zm3.784 6.612a2.225 2.225 0 0 0 3.146 0l-1.414-1.414a.225.225 0 0 1-.318 0zm-7.682.433a1.45 1.45 0 0 1 2.051 0l1.414-1.414a3.45 3.45 0 0 0-4.879 0zm2.051 0a1.45 1.45 0 0 1 0 2.05l1.414 1.415a3.45 3.45 0 0 0 0-4.88zm0 2.05a1.45 1.45 0 0 1-2.05 0l-1.415 1.415a3.45 3.45 0 0 0 4.88 0zm-2.05 0a1.45 1.45 0 0 1 0-2.05l-1.415-1.414a3.45 3.45 0 0 0 0 4.879zM5.092 6.6V3.956h-2V6.6zm0-2.644V1.312h-2v2.644zm-3.644 1h2.644v-2H1.45zm2.644 0h2.645v-2H4.093z"/></svg>
